dist/img/icons/phone-violet.svg

<svg width="15" height="15" viewBox="0 0 15 15" fill="none" xmlns="http://www.w3.org/2000/svg">
<path d="M14.6637 11.8374L12.3472 9.52067C11.8858 9.06112 11.1217 9.07508 10.6442 9.55273L9.47714 10.7195C9.40341 10.6789 9.32709 10.6365 9.24685 10.5914C8.50986 10.1831 7.50116 9.62336 6.43971 8.56114C5.37512 7.49668 4.8149 6.48643 4.40529 5.74896C4.36207 5.67083 4.32065 5.5955 4.27976 5.52397L5.06303 4.74186L5.44812 4.35629C5.92633 3.87795 5.93952 3.11407 5.47919 2.65318L3.16268 0.33615C2.70235 -0.124093 1.93791 -0.11013 1.45969 0.368212L0.806819 1.02483L0.82466 1.04255C0.605743 1.32188 0.422809 1.64405 0.286676 1.99147C0.161186 2.32218 0.083057 2.63775 0.0473321 2.95398C-0.258548 5.48979 0.900247 7.80734 4.04507 10.9522C8.39217 15.299 11.8954 14.9706 12.0465 14.9546C12.3756 14.9152 12.6911 14.8366 13.0117 14.7121C13.3561 14.5776 13.678 14.3949 13.9572 14.1764L13.9714 14.1891L14.6329 13.5415C15.1101 13.0632 15.1238 12.2991 14.6637 11.8374Z" fill="#7E20C8"/>
</svg>

<svg width="15" height="15" viewBox="0 0 15 15" fill="none" xmlns="http://www.w3.org/2000/svg"><path d="M14.664 11.837l-2.317-2.316c-.461-.46-1.225-.446-1.703.032l-1.167 1.166c-.074-.04-.15-.082-.23-.128-.737-.408-1.746-.968-2.807-2.03C5.375 7.497 4.815 6.486 4.405 5.75l-.125-.225.783-.782.385-.386c.478-.478.492-1.242.031-1.703L3.163.336c-.46-.46-1.225-.446-1.703.032l-.653.657.018.018c-.22.279-.402.601-.538.948-.126.331-.204.647-.24.963C-.259 5.49.9 7.807 4.045 10.952c4.347 4.347 7.85 4.019 8.002 4.003.329-.04.644-.118.965-.243a3.76 3.76 0 0 0 .945-.536l.014.013.662-.648c.477-.478.49-1.242.03-1.704z" fill="#7E20C8"/></svg>
